X: 145
T: A Country Wedding
R: slip jig
M: 9/8
K: Gmajor
D|:G3 BGB dBd|G3 ece A3|G3 BG/A/B d2 d|efg agf g3:|
|:b3 bge bge|fga afd afd|b3 bge b2 e|ee/f/g agf g3:|
|:dBG dBG Bdg|ecA ecA c2 g|dBG dB/A/G B2 g|1 d>cB AA/G/F G3:|2 d2 B A2 F G2||

